public/icons/internal_server_error_icon.svg

<svg width="264" height="239" viewBox="0 0 264 239" fill="none" xmlns="http://www.w3.org/2000/svg">
<path d="M35.8281 176.551C29.9352 176.551 24.8176 175.775 20.4755 174.225C16.1333 172.57 12.4632 170.451 9.465 167.866C6.57024 165.178 4.34747 162.18 2.7967 158.872C1.24593 155.564 0.367158 152.152 0.160389 148.637H14.7376C15.2545 152.566 17.3222 156.029 20.9407 159.027C24.6625 162.025 29.625 163.524 35.8281 163.524C42.8582 163.524 48.3893 161.353 52.4213 157.011C56.4533 152.566 58.4693 146.414 58.4693 138.557C58.4693 134.111 57.7973 130.286 56.4533 127.081C55.2127 123.876 53.5068 121.292 51.3358 119.327C49.2681 117.363 46.8902 115.916 44.2022 114.985C41.5142 114.055 38.7228 113.59 35.8281 113.59C30.2453 113.59 25.8515 114.623 22.6465 116.691C19.545 118.759 17.1672 121.137 15.513 123.825H2.48654V66.4461H66.8435V79.1625H17.0638V109.402C22.4398 103.51 29.4699 100.563 38.1542 100.563C48.9062 100.563 57.3838 103.82 63.5868 110.333C69.8933 116.846 73.0465 126.254 73.0465 138.557C73.0465 144.346 72.1161 149.619 70.2552 154.375C68.4976 159.027 65.9647 163.007 62.6564 166.316C59.4515 169.624 55.5228 172.157 50.8705 173.914C46.3216 175.672 41.3075 176.551 35.8281 176.551ZM128.886 176.551C123.614 176.551 118.6 175.672 113.844 173.914C109.192 172.157 105.108 169.159 101.593 164.92C98.0777 160.578 95.2863 154.84 93.2186 147.706C91.151 140.47 90.1171 131.475 90.1171 120.723V117.622C90.1171 107.593 91.151 99.2191 93.2186 92.4991C95.2863 85.7791 98.0777 80.4031 101.593 76.3711C105.108 72.2357 109.192 69.2892 113.844 67.5317C118.6 65.7741 123.614 64.8954 128.886 64.8954C134.159 64.8954 139.121 65.7741 143.774 67.5317C148.529 69.2892 152.665 72.2357 156.18 76.3711C159.695 80.4031 162.486 85.7791 164.554 92.4991C166.622 99.2191 167.656 107.593 167.656 117.622V120.723C167.656 131.475 166.622 140.47 164.554 147.706C162.486 154.84 159.695 160.578 156.18 164.92C152.665 169.159 148.529 172.157 143.774 173.914C139.121 175.672 134.159 176.551 128.886 176.551ZM128.886 163.834C132.091 163.834 135.141 163.266 138.036 162.129C141.034 160.888 143.619 158.717 145.79 155.615C148.064 152.41 149.822 148.017 151.062 142.434C152.406 136.851 153.078 129.614 153.078 120.723V117.622C153.078 109.558 152.406 102.941 151.062 97.7717C149.822 92.6025 148.064 88.5188 145.79 85.5206C143.619 82.5225 141.034 80.4548 138.036 79.3175C135.141 78.1803 132.091 77.6117 128.886 77.6117C125.578 77.6117 122.476 78.1803 119.582 79.3175C116.687 80.4548 114.102 82.5225 111.828 85.5206C109.657 88.5188 107.899 92.6025 106.555 97.7717C105.315 102.941 104.694 109.558 104.694 117.622V120.723C104.694 129.614 105.315 136.851 106.555 142.434C107.899 148.017 109.657 152.41 111.828 155.615C114.102 158.717 116.687 160.888 119.582 162.129C122.476 163.266 125.578 163.834 128.886 163.834ZM225.052 176.551C219.78 176.551 214.765 175.672 210.01 173.914C205.357 172.157 201.274 169.159 197.759 164.92C194.244 160.578 191.452 154.84 189.385 147.706C187.317 140.47 186.283 131.475 186.283 120.723V117.622C186.283 107.593 187.317 99.2191 189.385 92.4991C191.452 85.7791 194.244 80.4031 197.759 76.3711C201.274 72.2357 205.357 69.2892 210.01 67.5317C214.765 65.7741 219.78 64.8954 225.052 64.8954C230.325 64.8954 235.287 65.7741 239.94 67.5317C244.695 69.2892 248.831 72.2357 252.346 76.3711C255.861 80.4031 258.652 85.7791 260.72 92.4991C262.788 99.2191 263.821 107.593 263.821 117.622V120.723C263.821 131.475 262.788 140.47 260.72 147.706C258.652 154.84 255.861 160.578 252.346 164.92C248.831 169.159 244.695 172.157 239.94 173.914C235.287 175.672 230.325 176.551 225.052 176.551ZM225.052 163.834C228.257 163.834 231.307 163.266 234.202 162.129C237.2 160.888 239.785 158.717 241.956 155.615C244.23 152.41 245.988 148.017 247.228 142.434C248.572 136.851 249.244 129.614 249.244 120.723V117.622C249.244 109.558 248.572 102.941 247.228 97.7717C245.988 92.6025 244.23 88.5188 241.956 85.5206C239.785 82.5225 237.2 80.4548 234.202 79.3175C231.307 78.1803 228.257 77.6117 225.052 77.6117C221.744 77.6117 218.642 78.1803 215.748 79.3175C212.853 80.4548 210.268 82.5225 207.994 85.5206C205.823 88.5188 204.065 92.6025 202.721 97.7717C201.481 102.941 200.86 109.558 200.86 117.622V120.723C200.86 129.614 201.481 136.851 202.721 142.434C204.065 148.017 205.823 152.41 207.994 155.615C210.268 158.717 212.853 160.888 215.748 162.129C218.642 163.266 221.744 163.834 225.052 163.834Z" fill="#F7F7FC"/>
<path d="M80.666 129.808L72.6563 129.956C71.248 129.982 70.0099 129.003 69.7132 127.625C69.3719 126.043 70.3796 124.469 71.9593 124.118L76.3339 123.144C77.8526 122.806 78.8093 121.301 78.471 119.782C78.1336 118.263 76.6284 117.307 75.1096 117.645L70.7349 118.619C66.1434 119.642 63.2147 124.214 64.2063 128.812C65.0694 132.814 68.6668 135.664 72.7604 135.589L80.7701 135.44C84.2465 135.376 87.0961 138.046 87.2564 141.52C87.3007 142.487 86.6183 143.355 85.6686 143.539L69.1692 146.745C65.3335 147.489 61.4304 146.46 58.4611 143.92L51.1281 137.647C48.1428 135.094 44.5113 133.588 40.6258 133.292C39.9536 133.239 38.313 132.948 33.9381 133.058C30.2861 133.151 26.5456 133.428 22.8199 133.881C21.2759 134.07 20.1767 135.474 20.365 137.018C20.5532 138.562 21.9578 139.661 23.5018 139.473C27.9108 138.936 35.204 138.37 39.6392 138.854C39.8585 138.878 40.0405 138.897 40.1981 138.909C42.8833 139.114 45.3971 140.158 47.4669 141.928L54.7997 148.201C59.082 151.864 64.7111 153.349 70.2434 152.275L86.7428 149.07C90.4162 148.356 93.0559 144.999 92.8841 141.26C92.5816 134.717 87.2146 129.687 80.666 129.808Z" fill="#A5A4B1"/>
<path d="M60.264 103.376C63.001 101.141 66.5785 100.139 70.0781 100.627L110.402 106.25C111.185 106.359 111.793 106.957 111.917 107.737C112.063 108.664 111.46 109.551 110.543 109.755C87.3136 114.929 89.016 114.47 88.3966 114.877C87.4214 115.52 86.9461 116.702 87.1966 117.839C87.3567 118.548 88.6669 121.501 88.3152 125.819C88.1887 127.372 89.3458 128.729 90.8936 128.855C92.4441 128.981 93.8034 127.827 93.9296 126.276C94.145 123.633 93.8868 121.27 93.4688 119.328L111.768 115.253C115.58 114.404 118.09 110.717 117.48 106.859C116.968 103.612 114.436 101.124 111.18 100.67L70.8563 95.0478C65.8082 94.344 60.6491 95.7887 56.7009 99.0124L44.869 108.673C42.2587 110.805 38.8076 111.894 35.2089 111.388C30.9503 110.79 25.3883 108.808 18.6747 105.519C17.2778 104.835 15.5906 105.412 14.9063 106.809C14.2196 108.21 14.8034 109.895 16.1964 110.578C21.6555 113.253 28.4615 116.137 34.4974 116.977C39.4407 117.664 44.5189 116.231 48.4313 113.037L60.264 103.376Z" fill="#A5A4B1"/>
<path d="M233.291 126.593C233.633 125.076 232.681 123.567 231.163 123.225C224.385 121.696 218.283 121.297 211.26 121.642C203.836 122.008 196.628 124.391 190.414 128.533L186.57 131.096C185.725 131.659 184.728 131.997 183.685 132.074C182.307 132.176 180.914 132.238 179.541 132.261C175.573 132.328 171.761 133.926 169.082 136.647C166.224 139.55 161.247 137.217 161.963 133.373C162.225 131.965 163.174 130.83 164.503 130.337L179.324 124.837C182.221 123.766 184.413 120.407 183.771 116.748C183.283 113.974 181.163 111.684 178.37 110.914C176.96 110.525 175.204 110.041 173.272 109.506C171.772 109.091 170.221 109.971 169.806 111.47C169.392 112.969 170.27 114.52 171.77 114.935C173.704 115.47 175.461 115.955 176.872 116.344C178.608 116.824 178.656 118.927 177.271 119.589L162.542 125.056C156.029 127.473 154.129 135.821 159.004 140.696C162.88 144.572 169.213 144.543 173.095 140.6C174.747 138.922 177.131 137.936 179.634 137.894C181.112 137.869 182.614 137.802 184.098 137.693C186.108 137.544 188.043 136.884 189.694 135.784L193.538 133.221C198.905 129.643 205.129 127.584 211.536 127.269C217.916 126.955 223.533 127.279 229.923 128.721C231.441 129.062 232.948 128.11 233.291 126.593Z" fill="#A5A4B1"/>
<path d="M138.54 99.7913C135.226 103.998 135.603 110.067 139.426 113.89C143.526 117.99 150.246 117.983 154.42 113.868C154.948 113.347 155.535 112.918 156.157 112.584C155.635 114.902 155.629 117.179 156.052 119.337C156.353 120.87 157.838 121.857 159.358 121.559C160.885 121.26 161.879 119.78 161.58 118.253C161.051 115.555 161.613 112.865 162.92 110.556C164.179 108.646 162.768 106.115 160.501 106.174C156.829 105.842 153.192 107.168 150.466 109.856C148.637 111.659 145.468 111.966 143.399 109.896C141.574 108.059 141.391 105.275 142.966 103.277C144.31 101.57 146.496 100.918 148.535 101.614C151.006 102.459 153.712 102.485 156.156 101.686C166.93 98.1661 178.453 97.4046 190.404 99.4224C191.91 99.6765 193.263 100.353 194.318 101.379C202.958 109.783 214.865 113.566 226.893 111.738C228.431 111.504 229.488 110.068 229.255 108.53C229.021 106.991 227.584 105.935 226.046 106.168C215.903 107.711 205.721 104.611 198.246 97.3408C196.368 95.5145 193.981 94.313 191.342 93.8676C178.483 91.6965 166.057 92.5255 154.407 96.3313C153.117 96.7528 151.679 96.7359 150.357 96.2838C146.089 94.8256 141.34 96.2352 138.54 99.7913Z" fill="#A5A4B1"/>
<path d="M105.628 86.777C104.474 87.8588 104.431 89.6913 105.564 90.8246C106.634 91.8948 108.369 91.9294 109.481 90.8866C112.378 88.1709 114.629 84.9425 116.171 81.2915C116.479 80.5636 117.299 80.2282 118.038 80.527C124.905 83.3071 132.455 83.2984 139.296 80.5021C139.983 80.2215 140.791 80.5793 141.096 81.2985C142.516 84.6562 144.545 87.6686 147.126 90.2505C148.228 91.3524 150.011 91.3499 151.109 90.2517C152.21 89.1518 152.21 87.3686 151.111 86.2682C149.044 84.2006 147.42 81.7902 146.283 79.1032C144.783 75.5571 140.692 73.845 137.164 75.2874C131.691 77.5241 125.649 77.5308 120.151 75.3049C116.589 73.8634 112.475 75.565 110.982 79.098C109.749 82.0197 107.947 84.6034 105.628 86.777Z" fill="#A5A4B1"/>
<path d="M149.256 133.337C150.212 132.109 149.993 130.338 148.764 129.384C147.536 128.428 145.767 128.649 144.811 129.876C143.3 131.817 142.049 133.949 141.092 136.214C140.785 136.941 139.965 137.277 139.226 136.978C132.358 134.198 124.809 134.207 117.968 137.002C117.28 137.284 116.472 136.926 116.168 136.207C114.201 131.557 111.014 127.512 106.949 124.508C105.698 123.583 103.934 123.848 103.01 125.099C102.085 126.35 102.349 128.113 103.6 129.038C106.854 131.443 109.405 134.68 110.98 138.402C112.475 141.935 116.558 143.664 120.099 142.218C125.572 139.981 131.614 139.974 137.111 142.199C140.674 143.642 144.787 141.94 146.281 138.407C147.047 136.595 148.048 134.889 149.256 133.337Z" fill="#A5A4B1"/>
</svg>

<svg width="264" height="239" fill="none" xmlns="http://www.w3.org/2000/svg"><path d="M35.828 176.551c-5.893 0-11.01-.776-15.353-2.326-4.342-1.655-8.012-3.774-11.01-6.359-2.895-2.688-5.118-5.686-6.668-8.994-1.551-3.308-2.43-6.72-2.637-10.235h14.578c.517 3.929 2.584 7.392 6.203 10.39 3.722 2.998 8.684 4.497 14.887 4.497 7.03 0 12.561-2.171 16.593-6.513 4.032-4.445 6.048-10.597 6.048-18.454 0-4.446-.672-8.271-2.016-11.476-1.24-3.205-2.946-5.789-5.117-7.754a19.52 19.52 0 0 0-7.134-4.342 25.431 25.431 0 0 0-8.374-1.395c-5.583 0-9.977 1.033-13.182 3.101-3.101 2.068-5.479 4.446-7.133 7.134H2.487V66.446h64.356v12.716h-49.78v30.24c5.377-5.892 12.407-8.839 21.091-8.839 10.752 0 19.23 3.257 25.433 9.77 6.306 6.513 9.46 15.921 9.46 28.224 0 5.789-.93 11.062-2.792 15.818-1.757 4.652-4.29 8.632-7.599 11.941-3.204 3.308-7.133 5.841-11.785 7.598-4.55 1.758-9.564 2.637-15.043 2.637Zm93.058 0c-5.272 0-10.286-.879-15.042-2.637-4.652-1.757-8.736-4.755-12.251-8.994-3.515-4.342-6.307-10.08-8.374-17.214-2.068-7.236-3.102-16.231-3.102-26.983v-3.101c0-10.029 1.034-18.403 3.102-25.123 2.067-6.72 4.859-12.096 8.374-16.128 3.515-4.135 7.599-7.082 12.251-8.84 4.756-1.757 9.77-2.636 15.042-2.636 5.273 0 10.235.88 14.888 2.637 4.755 1.757 8.891 4.704 12.406 8.84 3.515 4.031 6.306 9.407 8.374 16.127 2.068 6.72 3.102 15.094 3.102 25.123v3.101c0 10.752-1.034 19.747-3.102 26.983-2.068 7.134-4.859 12.872-8.374 17.214-3.515 4.239-7.651 7.237-12.406 8.994-4.653 1.758-9.615 2.637-14.888 2.637Zm0-12.717c3.205 0 6.255-.568 9.15-1.705 2.998-1.241 5.583-3.412 7.754-6.514 2.274-3.205 4.032-7.598 5.272-13.181 1.344-5.583 2.016-12.82 2.016-21.711v-3.101c0-8.064-.672-14.681-2.016-19.85-1.24-5.17-2.998-9.253-5.272-12.251-2.171-2.999-4.756-5.066-7.754-6.204-2.895-1.137-5.945-1.705-9.15-1.705-3.308 0-6.41.568-9.304 1.706-2.895 1.137-5.48 3.204-7.754 6.203-2.171 2.998-3.929 7.082-5.273 12.25-1.24 5.17-1.861 11.787-1.861 19.851v3.101c0 8.891.621 16.128 1.861 21.711 1.344 5.583 3.102 9.976 5.273 13.181 2.274 3.102 4.859 5.273 7.754 6.514 2.894 1.137 5.996 1.705 9.304 1.705Zm96.166 12.717c-5.272 0-10.287-.879-15.042-2.637-4.653-1.757-8.736-4.755-12.251-8.994-3.515-4.342-6.307-10.08-8.374-17.214-2.068-7.236-3.102-16.231-3.102-26.983v-3.101c0-10.029 1.034-18.403 3.102-25.123 2.067-6.72 4.859-12.096 8.374-16.128 3.515-4.135 7.598-7.082 12.251-8.84 4.755-1.757 9.77-2.636 15.042-2.636 5.273 0 10.235.88 14.888 2.637 4.755 1.757 8.891 4.704 12.406 8.84 3.515 4.031 6.306 9.407 8.374 16.127 2.068 6.72 3.101 15.094 3.101 25.123v3.101c0 10.752-1.033 19.747-3.101 26.983-2.068 7.134-4.859 12.872-8.374 17.214-3.515 4.239-7.651 7.237-12.406 8.994-4.653 1.758-9.615 2.637-14.888 2.637Zm0-12.717c3.205 0 6.255-.568 9.15-1.705 2.998-1.241 5.583-3.412 7.754-6.514 2.274-3.205 4.032-7.598 5.272-13.181 1.344-5.583 2.016-12.82 2.016-21.711v-3.101c0-8.064-.672-14.681-2.016-19.85-1.24-5.17-2.998-9.253-5.272-12.251-2.171-2.999-4.756-5.066-7.754-6.204-2.895-1.137-5.945-1.705-9.15-1.705-3.308 0-6.41.568-9.304 1.706-2.895 1.137-5.48 3.204-7.754 6.203-2.171 2.998-3.929 7.082-5.273 12.25-1.24 5.17-1.861 11.787-1.861 19.851v3.101c0 8.891.621 16.128 1.861 21.711 1.344 5.583 3.102 9.976 5.273 13.181 2.274 3.102 4.859 5.273 7.754 6.514 2.894 1.137 5.996 1.705 9.304 1.705Z" fill="#F7F7FC"/><path d="m80.666 129.808-8.01.148a2.96 2.96 0 0 1-2.943-2.331 2.962 2.962 0 0 1 2.246-3.507l4.375-.974a2.816 2.816 0 1 0-1.224-5.499l-4.375.974c-4.592 1.023-7.52 5.595-6.529 10.193a8.607 8.607 0 0 0 8.554 6.777l8.01-.149a6.342 6.342 0 0 1 6.486 6.08 1.975 1.975 0 0 1-1.587 2.019l-16.5 3.206a12.674 12.674 0 0 1-10.708-2.825l-7.333-6.273c-2.985-2.553-6.617-4.059-10.502-4.355-.672-.053-2.313-.344-6.688-.234-3.652.093-7.392.37-11.118.823a2.817 2.817 0 0 0 .682 5.592c4.409-.537 11.702-1.103 16.137-.619.22.024.401.043.56.055a12.597 12.597 0 0 1 7.268 3.019l7.333 6.273a18.276 18.276 0 0 0 15.443 4.074l16.5-3.205c3.673-.714 6.313-4.071 6.141-7.81a11.947 11.947 0 0 0-12.218-11.452Z" fill="#A5A4B1"/><path d="M60.264 103.376a12.775 12.775 0 0 1 9.814-2.749l40.324 5.623a1.774 1.774 0 0 1 1.515 1.487 1.786 1.786 0 0 1-1.374 2.018c-23.23 5.174-21.527 4.715-22.146 5.122a2.824 2.824 0 0 0-1.2 2.962c.16.709 1.47 3.662 1.118 7.98a2.816 2.816 0 1 0 5.615.457 23.833 23.833 0 0 0-.461-6.948l18.299-4.075c3.812-.849 6.322-4.536 5.712-8.394a7.374 7.374 0 0 0-6.3-6.189l-40.324-5.622a18.425 18.425 0 0 0-14.155 3.964l-11.832 9.661c-2.61 2.132-6.061 3.221-9.66 2.715-4.259-.598-9.82-2.58-16.534-5.869a2.817 2.817 0 1 0-2.479 5.059c5.46 2.675 12.265 5.559 18.301 6.399 4.944.687 10.022-.746 13.934-3.94l11.833-9.661Zm173.027 23.217a2.817 2.817 0 0 0-2.128-3.368c-6.778-1.529-12.88-1.928-19.903-1.583a41.268 41.268 0 0 0-20.846 6.891l-3.844 2.563a6.003 6.003 0 0 1-2.885.978 72.903 72.903 0 0 1-4.144.187c-3.968.067-7.78 1.665-10.459 4.386-2.858 2.903-7.835.57-7.119-3.274a3.98 3.98 0 0 1 2.54-3.036l14.821-5.5c2.897-1.071 5.089-4.43 4.447-8.089-.488-2.774-2.608-5.064-5.401-5.834-1.41-.389-3.166-.873-5.098-1.408a2.817 2.817 0 0 0-1.502 5.429l5.102 1.409c1.736.48 1.784 2.583.399 3.245l-14.729 5.467c-6.513 2.417-8.413 10.765-3.538 15.64 3.876 3.876 10.209 3.847 14.091-.096 1.652-1.678 4.036-2.664 6.539-2.706a79.589 79.589 0 0 0 4.464-.201 11.66 11.66 0 0 0 5.596-1.909l3.844-2.563a35.62 35.62 0 0 1 17.998-5.952c6.38-.314 11.997.01 18.387 1.452a2.819 2.819 0 0 0 3.368-2.128Z" fill="#A5A4B1"/><path d="M138.54 99.791c-3.314 4.207-2.937 10.276.886 14.099 4.1 4.1 10.82 4.093 14.994-.022a7.578 7.578 0 0 1 1.737-1.284 16.305 16.305 0 0 0-.105 6.753 2.817 2.817 0 0 0 5.528-1.084c-.529-2.698.033-5.388 1.34-7.697 1.259-1.91-.152-4.441-2.419-4.382-3.672-.332-7.309.994-10.035 3.682-1.829 1.803-4.998 2.11-7.067.04-1.825-1.837-2.008-4.621-.433-6.619 1.344-1.707 3.53-2.359 5.569-1.663 2.471.845 5.177.871 7.621.072 10.774-3.52 22.297-4.281 34.248-2.264 1.506.255 2.859.931 3.914 1.957 8.64 8.404 20.547 12.187 32.575 10.359a2.818 2.818 0 0 0-.847-5.57c-10.143 1.543-20.325-1.557-27.8-8.827-1.878-1.826-4.265-3.028-6.904-3.473-12.859-2.171-25.285-1.343-36.935 2.463a6.426 6.426 0 0 1-4.05-.047c-4.268-1.458-9.017-.049-11.817 3.507Zm-32.912-13.014a2.817 2.817 0 0 0 3.853 4.11 28.01 28.01 0 0 0 6.69-9.596 1.427 1.427 0 0 1 1.867-.764c6.867 2.78 14.417 2.771 21.258-.025.687-.28 1.495.077 1.8.797a28.072 28.072 0 0 0 6.03 8.951 2.816 2.816 0 1 0 3.985-3.982 22.478 22.478 0 0 1-4.828-7.165c-1.5-3.546-5.591-5.258-9.119-3.816-5.473 2.237-11.515 2.244-17.013.018-3.562-1.442-7.676.26-9.169 3.793a22.398 22.398 0 0 1-5.354 7.679Zm43.628 46.56a2.817 2.817 0 0 0-4.445-3.461 28.168 28.168 0 0 0-3.719 6.338 1.426 1.426 0 0 1-1.866.764c-6.868-2.78-14.417-2.771-21.258.024-.688.282-1.496-.076-1.8-.795a28.232 28.232 0 0 0-9.219-11.699 2.816 2.816 0 1 0-3.349 4.53 22.605 22.605 0 0 1 7.38 9.364c1.495 3.533 5.578 5.262 9.119 3.816 5.473-2.237 11.515-2.244 17.012-.019 3.563 1.443 7.676-.259 9.17-3.792a22.558 22.558 0 0 1 2.975-5.07Z" fill="#A5A4B1"/></svg>
